Papirus/24x24/panel/caps-lock-off.svg

<?xml version="1.0" encoding="UTF-8" standalone="no"?>
<svg id="svg2" xmlns:rdf="http://www.w3.org/1999/02/22-rdf-syntax-ns#" xmlns="http://www.w3.org/2000/svg" viewBox="0 0 24 24" width="24" version="1.1" xmlns:cc="http://creativecommons.org/ns#" height="24" xmlns:dc="http://purl.org/dc/elements/1.1/">
 <metadata id="metadata14">
  <rdf:RDF>
   <cc:Work rdf:about="">
    <dc:format>image/svg+xml</dc:format>
    <dc:type rdf:resource="http://purl.org/dc/dcmitype/StillImage"/>
    <dc:title/>
   </cc:Work>
  </rdf:RDF>
 </metadata>
 <path id="path6" opacity=".3" style="color-rendering:auto;text-decoration-color:#000000;color:#000000;isolation:auto;mix-blend-mode:normal;shape-rendering:auto;solid-color:#000000;block-progression:tb;text-decoration-line:none;image-rendering:auto;white-space:normal;text-indent:0;text-transform:none;text-decoration-style:solid" d="m7 4a2.0002 2.0002 0 0 0 -1.9883 1.7793l-1 8.9997a2.0002 2.0002 0 0 0 1.9883 2.221h12a2.0002 2.0002 0 0 0 1.988 -2.221l-1-8.9997a2.0002 2.0002 0 0 0 -1.988 -1.7793h-10zm3.898 2.0391h2.315l2.91 8.9609h-1.91l-0.609-2.125h-3.077l-0.6168 2.125h-1.9102l2.898-8.9609zm1.166 1.2578c-0.016 0.0895-0.037 0.1963-0.066 0.3183-0.024 0.1221-0.055 0.2523-0.092 0.3907-0.032 0.1342-0.067 0.2698-0.103 0.4082-0.037 0.1383-0.071 0.2685-0.104 0.3906-0.032 0.1221-0.063 0.2306-0.092 0.3242-0.024 0.0936-0.042 0.1623-0.054 0.207l-0.569 1.9531h2.18l-0.574-1.9531c-0.025-0.0732-0.061-0.1925-0.11-0.3593-0.048-0.1669-0.103-0.3514-0.16-0.5508-0.053-0.2035-0.103-0.4059-0.152-0.6094-0.049-0.2034-0.083-0.3771-0.104-0.5195z" fill-rule="evenodd" fill="#fff"/>
 <path id="path8" opacity=".3" style="color-rendering:auto;text-decoration-color:#000000;color:#000000;isolation:auto;mix-blend-mode:normal;shape-rendering:auto;solid-color:#000000;block-progression:tb;text-decoration-line:none;image-rendering:auto;white-space:normal;text-indent:0;text-transform:none;text-decoration-style:solid" fill="#fff" d="m4 17.203v0.547c0 1.212 1.0381 2.25 2.25 2.25h11.5c1.212 0 2.25-1.038 2.25-2.25v-0.547c-0.532 0.485-1.225 0.797-2 0.797h-12c-0.7746 0-1.4684-0.312-2-0.797z"/>
</svg>

<?xml version="1.0" encoding="UTF-8" standalone="no"?>
<svg xmlns:dc="http://purl.org/dc/elements/1.1/" xmlns:cc="http://creativecommons.org/ns#" xmlns:rdf="http://www.w3.org/1999/02/22-rdf-syntax-ns#" xmlns:svg="http://www.w3.org/2000/svg" xmlns="http://www.w3.org/2000/svg" id="svg2" viewBox="0 0 24 24" version="1.1" width="24" height="24">
    <metadata id="metadata14">
        <rdf:RDF>
            <cc:Work rdf:about="">
                <dc:format>
                    image/svg+xml
                </dc:format>
                <dc:type rdf:resource="http://purl.org/dc/dcmitype/StillImage"/>
                <dc:title/>
            </cc:Work>
        </rdf:RDF>
    </metadata>
    <path style="color:#000000;text-indent:0;text-decoration:none;text-decoration-line:none;text-decoration-style:solid;text-decoration-color:#000000;text-transform:none;block-progression:tb;white-space:normal;opacity:0.3;isolation:auto;mix-blend-mode:normal;solid-color:#000000;fill:#ffffff;fill-rule:evenodd;color-rendering:auto;image-rendering:auto;shape-rendering:auto" d="M 7,4 A 2.0002,2.0002 0 0 0 5.0117,5.7793 l -1,8.9997 A 2.0002,2.0002 0 0 0 6,17 l 12,0 a 2.0002,2.0002 0 0 0 1.988,-2.221 l -1,-8.9997 A 2.0002,2.0002 0 0 0 17,4 L 7,4 Z m 3.898,2.0391 2.315,0 2.91,8.9609 -1.91,0 -0.609,-2.125 -3.077,0 L 9.9102,15 8,15 10.898,6.0391 Z m 1.166,1.2578 c -0.016,0.0895 -0.037,0.1963 -0.066,0.3183 -0.024,0.1221 -0.055,0.2523 -0.092,0.3907 -0.032,0.1342 -0.067,0.2698 -0.103,0.4082 -0.037,0.1383 -0.071,0.2685 -0.104,0.3906 -0.032,0.1221 -0.063,0.2306 -0.092,0.3242 -0.024,0.0936 -0.042,0.1623 -0.054,0.207 l -0.569,1.9531 2.18,0 L 12.59,9.3359 C 12.565,9.2627 12.529,9.1434 12.48,8.9766 12.432,8.8097 12.377,8.6252 12.32,8.4258 12.267,8.2223 12.217,8.0199 12.168,7.8164 12.119,7.613 12.085,7.4393 12.064,7.2969 Z" id="path6"/>
    <path style="color:#000000;text-indent:0;text-decoration:none;text-decoration-line:none;text-decoration-style:solid;text-decoration-color:#000000;text-transform:none;block-progression:tb;white-space:normal;opacity:0.3;isolation:auto;mix-blend-mode:normal;solid-color:#000000;fill:#ffffff;color-rendering:auto;image-rendering:auto;shape-rendering:auto" d="M 4,17.203 4,17.75 C 4,18.962 5.0381,20 6.25,20 l 11.5,0 C 18.962,20 20,18.962 20,17.75 l 0,-0.547 C 19.468,17.688 18.775,18 18,18 L 6,18 C 5.2254,18 4.5316,17.688 4,17.203 Z" id="path8"/>
</svg>
